proprietary/assets/icons/energie-en-chemie/kookbrander.svg

<svg height="64" viewBox="0 0 64 64" width="64" xmlns="http://www.w3.org/2000/svg"><path d="m0 0h64v64h-64z" fill="none"/><path d="m12.1714 27.6429c-1.8572 2.7142-.9286 6.4343 1.9285 7.1486 1.8096.4524 3.2903-.3003 4.1345-.9135-.7577-.7283-1.2344-1.7465-1.2344-2.878 0-2.2056 1.7944-4 4-4h22c2.2056 0 4 1.7944 4 4 0 1.1315-.4767 2.1497-1.2345 2.8779.8442.6132 2.3249 1.3659 4.1345.9135 2.8571-.7143 3.7857-4.4343 1.9285-7.1486-2.3135-3.3814-7.4974-3.0721-11.0428-9.6428-4.1403-7.6734-4.2857-16.2143-4.2857-16.2143s-3.0714 8.0714-7.0714 13.2143c-3.2857-1.9286-4.6429-5-4.6429-5s-.2143 7.2143-3.1428 10.5c-2.9286 3.2857-7.6143 4.4286-9.4715 7.1429z"/><path d="m58 17h-10c-.5523 0-1 .4477-1 1v2c0 .5523.4477 1 1 1h7v17h-10.5476l-2.2222-5h.7698c1.1046 0 2-.8954 2-2s-.8954-2-2-2h-22c-1.1046 0-2 .8954-2 2s.8954 2 2 2h.7698l-2.2222 5h-10.5476v-17h7c.5523 0 1-.4477 1-1v-2c0-.5523-.4477-1-1-1h-10c-2.2092 0-4 1.7908-4 4v38c0 .5523.4477 1 1 1h5c.5523 0 1-.4477 1-1v-14h10.2884c1.4561 2.4038 4.8464 5 12.7116 5s11.2555-2.5962 12.7116-5h10.2884v14c0 .5523.4477 1 1 1h5c.5523 0 1-.4477 1-1v-38c0-2.2092-1.7908-4-4-4zm-31.5 20.3c-.9941 0-1.8-.8058-1.8-1.8s.8058-1.8 1.8-1.8 1.8.8058 1.8 1.8-.8059 1.8-1.8 1.8zm5.5 0c-.9941 0-1.8-.8058-1.8-1.8s.8058-1.8 1.8-1.8 1.8.8058 1.8 1.8-.8059 1.8-1.8 1.8zm5.5 0c-.9941 0-1.8-.8058-1.8-1.8s.8058-1.8 1.8-1.8 1.8.8058 1.8 1.8-.8059 1.8-1.8 1.8z"/></svg>

<?xml version="1.0" encoding="utf-8"?>
<!-- Generator: Adobe Illustrator 19.1.0, SVG Export Plug-In . SVG Version: 6.00 Build 0)  -->
<svg version="1.2" baseProfile="tiny" xmlns="http://www.w3.org/2000/svg" xmlns:xlink="http://www.w3.org/1999/xlink" x="0px"
	 y="0px" width="64px" height="64px" viewBox="0 0 64 64" xml:space="preserve">
<g id="Box">
	<rect fill="none" width="64" height="64"/>
</g>
<g id="Icon">
	<g>
		<path d="M12.1714,27.6429c-1.8572,2.7142-0.9286,6.4343,1.9285,7.1486c1.8096,0.4524,3.2903-0.3003,4.1345-0.9135
			C17.4767,33.1497,17,32.1315,17,31c0-2.2056,1.7944-4,4-4h22c2.2056,0,4,1.7944,4,4c0,1.1315-0.4767,2.1497-1.2345,2.8779
			c0.8442,0.6132,2.3249,1.3659,4.1345,0.9135c2.8571-0.7143,3.7857-4.4343,1.9285-7.1486
			C49.515,24.2614,44.3311,24.5707,40.7857,18C36.6454,10.3266,36.5,1.7857,36.5,1.7857S33.4286,9.8571,29.4286,15
			c-3.2857-1.9286-4.6429-5-4.6429-5s-0.2143,7.2143-3.1428,10.5C18.7143,23.7857,14.0286,24.9286,12.1714,27.6429z"/>
		<path d="M58,17H48c-0.5523,0-1,0.4477-1,1v2c0,0.5523,0.4477,1,1,1h7v17H44.4524l-2.2222-5H43c1.1046,0,2-0.8954,2-2
			s-0.8954-2-2-2H21c-1.1046,0-2,0.8954-2,2s0.8954,2,2,2h0.7698l-2.2222,5H9V21h7c0.5523,0,1-0.4477,1-1v-2c0-0.5523-0.4477-1-1-1
			H6c-2.2092,0-4,1.7908-4,4v38c0,0.5523,0.4477,1,1,1h5c0.5523,0,1-0.4477,1-1V45h10.2884c1.4561,2.4038,4.8464,5,12.7116,5
			s11.2555-2.5962,12.7116-5H55v14c0,0.5523,0.4477,1,1,1h5c0.5523,0,1-0.4477,1-1V21C62,18.7908,60.2092,17,58,17z M26.5,37.3
			c-0.9941,0-1.8-0.8058-1.8-1.8s0.8058-1.8,1.8-1.8s1.8,0.8058,1.8,1.8S27.4941,37.3,26.5,37.3z M32,37.3
			c-0.9941,0-1.8-0.8058-1.8-1.8s0.8058-1.8,1.8-1.8s1.8,0.8058,1.8,1.8S32.9941,37.3,32,37.3z M37.5,37.3
			c-0.9941,0-1.8-0.8058-1.8-1.8s0.8058-1.8,1.8-1.8s1.8,0.8058,1.8,1.8S38.4941,37.3,37.5,37.3z"/>
	</g>
</g>
</svg>
